PortableApps/LibreOfficePortable/App/libreoffice/help/media/icon-themes/cmd/lc_dataproviderrefresh.svg

<svg viewBox="0 0 24 24" xmlns="http://www.w3.org/2000/svg"><path d="m5 3v9h6.279297c.00978-.013926.021403-.025225.03125-.039062.185678-.260944.383758-.503562.591797-.732422.093964-.103317.192892-.196424.291015-.292969.152094-.149838.307467-.292587.46875-.425781.099321-.08188.198267-.162865.300782-.238282.21648-.1596.4388-.3036047.667968-.4335934.052919-.0299552.102724-.0673606.15625-.0957031.004408-.0023391.00926-.0035313.013672-.0058594.275726-.1454887.561911-.263614.851563-.3652343.096219-.0336648.193524-.0591886.291015-.0878907.221555-.0654425.444818-.1190065.671875-.1582031.097085-.0167055.193131-.035055.291016-.046875.316746-.0384045.636411-.0591658.958984-.0449219.255812.0112961.505915.0500478.753907.0996094.094111.0179887.188168.0358936.28125.0585937.048046.0121896.094804.0295749.142578.0429688.325419.0880076.643943.2027714.957031.3398438v-2.8457032l-4-3.7285156zm11.6875 10.03125c-.562722-.024848-1.029244.095143-1.488281.455078s-.93031 1.005796-1.300781 2.126953l.009765-.029297c-.055629.187302-.25062.254635-.353515.416016h2.439453c.177586-.002512.287791.151856.457031.193359-.137594-.184231-.24973-.380989-.328125-.583984s-.123047-.412227-.123047-.623047c0-.475643.154229-.965709.509766-1.361328.208669-.232195.57258-.265542.890625-.375-.241389-.077156-.499881-.20935-.712891-.21875zm.882812 3.761719c.275188.368464.451172.785392.451172 1.207031 0 .475643-.154229.965709-.509765 1.361328-.168409.187395-.473944.192353-.71875.302734.250729.085186.528295.216557.724609.222657.492699.015368.885161-.094024 1.316406-.451172.054389-.045044.110599-.109258.166016-.164063v-2.285156h-.972656c-.177587.002512-.287791-.151859-.457032-.193359zm-4.570312 2.554687v.050782l.712891.68164c.342609.327901.700397.510532 1.052734.75-.246056-.166783-.492934-.330596-.736328-.513672s-.483302-.385416-.714844-.632812z" fill="#fff"/><path d="m5 2c-.554 0-1 .446-1 1v9h1v-9h9v4c0 .554.446 1 1 1h4v1.5742188c.340332.1489998.673612.3190866 1 .5117192v-2.835938-.2089844c0-.4506799.098038-.4254121-.605469-1.0664062l-3.30664-3.2382813c-.709525-.7368575-.710169-.7363281-1.09375-.7363281h-.332032-.662109zm14.382812 10.021484c.208456.139042.413635.290647.617188.445313v-.042969c-.203316-.140721-.411894-.265694-.617188-.402344zm-.382812 4.964844v2.285156c.334488-.330792.680115-.85153 1-1.621093v-.664063z" fill="#808080"/><path d="m15 7h4l-4-4z" fill="#fff"/><path d="m2 16c-.554 0-1 .446-1 1v5c0 .554.446 1 1 1h8.283203c-.164271-.303112-.26682-.651543-.261719-1.013672v-3.724609c-.0238014-.178243-.0324513-.358385-.007812-.53711.001024-.00843.000853-.01699.001953-.02539l.009766-.072266.019531-.068359c.0025-.00913.005112-.018244.007812-.027344l-.029296.130859c.077641-.508219.367774-.918398.75-1.224609-.18441-.14856-.416192-.218378-.544922-.4375zm10 1.964844-.001953.011718v.001954l-.003906.019531v.001953h.005859z" fill="#808080"/><path d="m1 13v4h9.271484c.132005-.214512.303277-.403335.501954-.5625-.186895-.150561-.423179-.219088-.550782-.445312-.2632907-.466783-.3127693-1.097669-.111328-1.65625.158457-.475533.354326-.917026.570313-1.335938z" fill="#4d82b8"/><path d="m2 14v2h4v-2zm5 0v2h3.228516c-.001734-.002952-.004164-.004806-.00586-.007812-.2632907-.466783-.3127693-1.097669-.111328-1.65625.039401-.118243.095535-.221107.138672-.335938zm-5 3v2h4v-2zm5 0v2h3.021484v-.738281c-.0238014-.178243-.0324513-.358385-.007812-.53711.001024-.00843.000853-.01699.001953-.02539l.009766-.072266.019531-.068359c.0025-.00913.005112-.018244.007812-.027344l-.029296.130859c.037284-.244052.126092-.463929.248046-.662109zm-5 3v2h4v-2zm5 0v2h3.023438c.000033-.004643-.002019-.009027-.001954-.013672v-1.986328z" fill="#fff"/><path d="m21.984375 9.9707034a1.0001 1.0001 0 0 0 -.984375 1.0156246v.949219c-1.217541-1.158856-2.680088-1.836125-4.179688-1.902344-2.406746-.1062749-4.742189 1.529639-5.769531 4.638672a1.0001 1.0001 0 1 0 1.898438.626953c.82859-2.507553 2.267284-3.334517 3.783203-3.267578 1.138533.05027 2.413655.701252 3.443359 1.955078h-2.162109a1.0001 1.0001 0 1 0 0 2h3.77539a1.0001 1.0001 0 0 0 1.072266-.447266 1.0001 1.0001 0 0 0 .02539-.04101 1.0001 1.0001 0 0 0 .0059-.01367 1.0001 1.0001 0 0 0 .107382-.72657v-3.771484a1.0001 1.0001 0 0 0 -1.015625-1.0156246zm-10.037109 6.9941406a1.0001 1.0001 0 0 0 -.935547.847656 1.0001 1.0001 0 0 0 -.0039.01367 1.0001 1.0001 0 0 0 -.0039.03516 1.0001 1.0001 0 0 0 .01758.367188v3.771482a1.0001 1.0001 0 1 0 2 0v-1.197266c1.338089 1.280643 2.849305 2.03359 4.402344 2.082032 2.3217.07242 4.451328-1.577123 5.53711-4.541016a1.0001 1.0001 0 0 0 -.898453-1.357422 1.0001 1.0001 0 0 0 -.980469.669922c-.897269 2.449303-2.198127 3.274062-3.595703 3.230469-1.035994-.032313-2.276915-.642491-3.441406-1.886719h1.96289a1.0001 1.0001 0 1 0 0-2h-3.74414a1.0001 1.0001 0 0 0 -.316406-.03516z" fill="#4d82b8"/></svg>

<svg viewBox="0 0 24 24" xmlns="http://www.w3.org/2000/svg">
  <path
     style="fill:#ffffff"
     d="M 5 3 L 5 12 L 11.279297 12 C 11.289077 11.986074 11.3007 11.974775 11.310547 11.960938 C 11.496225 11.699994 11.694305 11.457376 11.902344 11.228516 C 11.996308 11.125199 12.095236 11.032092 12.193359 10.935547 C 12.345453 10.785709 12.500826 10.64296 12.662109 10.509766 C 12.76143 10.427886 12.860376 10.346901 12.962891 10.271484 C 13.179371 10.111884 13.401691 9.9678793 13.630859 9.8378906 C 13.683778 9.8079354 13.733583 9.77053 13.787109 9.7421875 C 13.791517 9.7398484 13.796369 9.7386562 13.800781 9.7363281 C 14.076507 9.5908394 14.362692 9.4727141 14.652344 9.3710938 C 14.748563 9.337429 14.845868 9.3119052 14.943359 9.2832031 C 15.164914 9.2177606 15.388177 9.1641966 15.615234 9.125 C 15.712319 9.1082945 15.808365 9.089945 15.90625 9.078125 C 16.222996 9.0397205 16.542661 9.0189592 16.865234 9.0332031 C 17.121046 9.0444992 17.371149 9.0832509 17.619141 9.1328125 C 17.713252 9.1508012 17.807309 9.1687061 17.900391 9.1914062 C 17.948437 9.2035958 17.995195 9.2209811 18.042969 9.234375 C 18.368388 9.3223826 18.686912 9.4371464 19 9.5742188 L 19 6.7285156 L 15 3 L 5 3 z M 16.6875 13.03125 C 16.124778 13.006402 15.658256 13.126393 15.199219 13.486328 C 14.740182 13.846263 14.268909 14.492124 13.898438 15.613281 L 13.908203 15.583984 C 13.852574 15.771286 13.657583 15.838619 13.554688 16 L 15.994141 16 C 16.171727 15.997488 16.281932 16.151856 16.451172 16.193359 C 16.313578 16.009128 16.201442 15.81237 16.123047 15.609375 C 16.044652 15.40638 16 15.197148 16 14.986328 C 16 14.510685 16.154229 14.020619 16.509766 13.625 C 16.718435 13.392805 17.082346 13.359458 17.400391 13.25 C 17.159002 13.172844 16.90051 13.04065 16.6875 13.03125 z M 17.570312 16.792969 C 17.8455 17.161433 18.021484 17.578361 18.021484 18 C 18.021484 18.475643 17.867255 18.965709 17.511719 19.361328 C 17.34331 19.548723 17.037775 19.553681 16.792969 19.664062 C 17.043698 19.749248 17.321264 19.880619 17.517578 19.886719 C 18.010277 19.902087 18.402739 19.792695 18.833984 19.435547 C 18.888373 19.390503 18.944583 19.326289 19 19.271484 L 19 16.986328 L 18.027344 16.986328 C 17.849757 16.98884 17.739553 16.834469 17.570312 16.792969 z M 13 19.347656 L 13 19.398438 L 13.712891 20.080078 C 14.0555 20.407979 14.413288 20.59061 14.765625 20.830078 C 14.519569 20.663295 14.272691 20.499482 14.029297 20.316406 C 13.785903 20.13333 13.545995 19.93099 13.314453 19.683594 L 13 19.347656 z "
     id="path2" />
  <path
     style="fill:#808080"
     d="M 5 2 C 4.446 2 4 2.446 4 3 L 4 12 L 5 12 L 5 3 L 14 3 L 14 7 C 14 7.554 14.446 8 15 8 L 19 8 L 19 9.5742188 C 19.340332 9.7232186 19.673612 9.8933054 20 10.085938 L 20 7.25 L 20 7.0410156 C 20 6.5903357 20.098038 6.6156035 19.394531 5.9746094 L 16.087891 2.7363281 C 15.378366 1.9994706 15.377722 2 14.994141 2 L 14.662109 2 L 14 2 L 5 2 z M 19.382812 12.021484 C 19.591268 12.160526 19.796447 12.312131 20 12.466797 L 20 12.423828 C 19.796684 12.283107 19.588106 12.158134 19.382812 12.021484 z M 19 16.986328 L 19 19.271484 C 19.334488 18.940692 19.680115 18.419954 20 17.650391 L 20 16.986328 L 19 16.986328 z "
     id="path4" />
  <path
     style="fill:#ffffff"
     d="m 15,7 h 4 L 15,3 Z"
     id="path6" />
  <path
     style="fill:#808080"
     d="M 2 16 C 1.446 16 1 16.446 1 17 L 1 22 C 1 22.554 1.446 23 2 23 L 10.283203 23 C 10.118932 22.696888 10.016383 22.348457 10.021484 21.986328 L 10.021484 18.261719 C 9.9976826 18.083476 9.9890327 17.903334 10.013672 17.724609 C 10.014696 17.716179 10.014525 17.707619 10.015625 17.699219 L 10.025391 17.626953 L 10.044922 17.558594 C 10.047422 17.549464 10.050034 17.54035 10.052734 17.53125 L 10.023438 17.662109 C 10.101079 17.15389 10.391212 16.743711 10.773438 16.4375 C 10.589028 16.28894 10.357246 16.219122 10.228516 16 L 2 16 z M 12 17.964844 L 11.998047 17.976562 L 11.998047 17.978516 L 11.994141 17.998047 L 11.994141 18 L 12 18 L 12 17.964844 z "
     id="rect8" />
  <path
     style="fill:#4d82b8"
     d="M 1 13 L 1 17 L 10.271484 17 C 10.403489 16.785488 10.574761 16.596665 10.773438 16.4375 C 10.586543 16.286939 10.350259 16.218412 10.222656 15.992188 C 9.9593653 15.525405 9.9098867 14.894519 10.111328 14.335938 C 10.269785 13.860405 10.465654 13.418912 10.681641 13 L 1 13 z "
     id="path10" />
  <path
     style="fill:#ffffff"
     d="M 2 14 L 2 16 L 6 16 L 6 14 L 2 14 z M 7 14 L 7 16 L 10.228516 16 C 10.226782 15.997048 10.224352 15.995194 10.222656 15.992188 C 9.9593653 15.525405 9.9098867 14.894519 10.111328 14.335938 C 10.150729 14.217695 10.206863 14.114831 10.25 14 L 7 14 z M 2 17 L 2 19 L 6 19 L 6 17 L 2 17 z M 7 17 L 7 19 L 10.021484 19 L 10.021484 18.261719 C 9.9976826 18.083476 9.9890327 17.903334 10.013672 17.724609 C 10.014696 17.716179 10.014525 17.707619 10.015625 17.699219 L 10.025391 17.626953 L 10.044922 17.558594 C 10.047422 17.549464 10.050034 17.54035 10.052734 17.53125 L 10.023438 17.662109 C 10.060722 17.418057 10.14953 17.19818 10.271484 17 L 7 17 z M 2 20 L 2 22 L 6 22 L 6 20 L 2 20 z M 7 20 L 7 22 L 10.023438 22 C 10.023471 21.995357 10.021419 21.990973 10.021484 21.986328 L 10.021484 20 L 7 20 z "
     id="path12" />
  <path
     style="fill:#4d82b8"
     d="M 21.984375,9.9707034 A 1.0001,1.0001 0 0 0 21,10.986328 v 0.949219 c -1.217541,-1.158856 -2.680088,-1.836125 -4.179688,-1.902344 -2.406746,-0.1062749 -4.742189,1.529639 -5.769531,4.638672 a 1.0001,1.0001 0 1 0 1.898438,0.626953 c 0.82859,-2.507553 2.267284,-3.334517 3.783203,-3.267578 1.138533,0.05027 2.413655,0.701252 3.443359,1.955078 h -2.162109 a 1.0001,1.0001 0 1 0 0,2 h 3.77539 a 1.0001,1.0001 0 0 0 1.072266,-0.447266 1.0001,1.0001 0 0 0 0.02539,-0.04101 1.0001,1.0001 0 0 0 0.0059,-0.01367 A 1.0001,1.0001 0 0 0 23,14.757812 V 10.986328 A 1.0001,1.0001 0 0 0 21.984375,9.9707034 Z M 11.947266,16.964844 a 1.0001,1.0001 0 0 0 -0.935547,0.847656 1.0001,1.0001 0 0 0 -0.0039,0.01367 1.0001,1.0001 0 0 0 -0.0039,0.03516 1.0001,1.0001 0 0 0 0.01758,0.367188 V 22 a 1.0001,1.0001 0 1 0 2,0 v -1.197266 c 1.338089,1.280643 2.849305,2.03359 4.402344,2.082032 2.3217,0.07242 4.451328,-1.577123 5.53711,-4.541016 A 1.0001,1.0001 0 0 0 22.0625,16.986328 1.0001,1.0001 0 0 0 21.082031,17.65625 c -0.897269,2.449303 -2.198127,3.274062 -3.595703,3.230469 C 16.450334,20.854406 15.209413,20.244228 14.044922,19 h 1.96289 a 1.0001,1.0001 0 1 0 0,-2 h -3.74414 a 1.0001,1.0001 0 0 0 -0.316406,-0.03516 z"
     id="path10-3-9" />
</svg>
